svg/coffee_to_go.svg

<svg xmlns="http://www.w3.org/2000/svg" viewBox="0 0 24 24"><path d="M3 19v-2h14l-1.74-1.76 1.41-1.41L20.84 18l-4.17 4.17-1.41-1.41L17 19zM17 8V5h-2v3zm0-5a2 2 0 0 1 2 2v3c0 1.11-.89 2-2 2h-2v1a4 4 0 0 1-4 4H7a4 4 0 0 1-4-4V3z"/></svg>

<?xml version="1.0" encoding="UTF-8"?><!DOCTYPE svg PUBLIC "-//W3C//DTD SVG 1.1//EN" "http://www.w3.org/Graphics/SVG/1.1/DTD/svg11.dtd"><svg xmlns="http://www.w3.org/2000/svg" xmlns:xlink="http://www.w3.org/1999/xlink" version="1.1" id="mdi-coffee-to-go" width="24" height="24" viewBox="0 0 24 24"><path d="M3,19V17H17L15.26,15.24L16.67,13.83L20.84,18L16.67,22.17L15.26,20.76L17,19H3M17,8V5H15V8H17M17,3C18.11,3 19,3.9 19,5V8C19,9.11 18.11,10 17,10H15V11A4,4 0 0,1 11,15H7A4,4 0 0,1 3,11V3H17Z" /></svg>
